!!!!SEGMENT: pl-cz--iii-594b--003_rzepko-adolf--missa-credo.krn
!!!cenid: 18xx:1136
!!!COM: Rzepko, Adolf
!!!COM-rismID: pe30020315
!!!CDT: 1825-1892
!!!CNT: Polish
!!!OPR: Missa
!!!OTL: Credo
!!!OMV: 003
!!!PDT: 1873
!!!AGN: Sacred; Mass
!!!SMS-siglum: PL-CZ
!!!SMS-shelfmark: III-594b
!!!SMS-shelfwork: 001-003 M
!!!SMS-variant:
!!!SMS-altvar:
!!!NIFC-rismSourceID: 300001137
!!!NIFC-islandoraID:
!!!URL-pdf-islandora:
!!!URL-scan:
!!!ONB-nifc: UWAGA: części Mszy: Kyrie, Gloria, Credo, Sanctus, Benedictus, Agnus Dei. Uwaga: msza w źródle druga w kolejności, od skanu nr 0023, RISM ID 300001137.
!!!AIN: 1 clars 2 clrno 1 flt 1 organ 1 soprn 3 violn
!!!key: C
**kern	**dynam	**fb	**kern	**dynam	**kern	**dynam	**kern	**dynam	**kern	**text	**dynam	**kern	**dynam	**kern	**dynam	**kern	**dynam	**kern
*part9	*part9	*	*part8	*part8	*part7	*part7	*part6	*part6	*part5	*part5	*part5	*part4	*part4	*part3	*part3	*part2	*part2	*part1
*staff9	*	*	*staff8	*	*staff7	*	*staff6	*	*staff5	*staff5	*	*staff4	*	*staff3	*	*staff2	*	*staff1
*group	*group	*	*group3	*group3	*group3	*group3	*group3	*group3	*group	*group	*group	*group2	*group2	*group2	*group2	*group1	*group1	*group1
*I"Organo	*	*	*I"Violino in F obligato	*	*I"Violino 2do.	*	*I"Violino 1mo	*	*I"Sopran.	*	*	*I"Clarino in C IIdo	*	*I"Clarino in C: 1mo	*	*I"Clarinetto i C	*	*I"Flauto
*I'org	*	*	*I'vl in F	*	*I'vl 2	*	*I'vl 1	*	*I'S	*	*	*I'clno 2	*	*I'clno 1	*	*I'cl	*	*I'fl
*Iorgan	*	*	*Ivioln	*	*Ivioln	*	*Ivioln	*	*Isoprn	*	*	*Iclrno	*	*Iclrno	*	*Iclars	*	*Iflt
*ICklav	*	*	*ICstr	*	*ICstr	*	*ICstr	*	*ICvox	*	*	*ICbras	*	*ICbras	*	*ICww	*	*ICww
*clefF4	*	*	*clefG2	*	*clefG2	*	*clefG2	*	*clefC1	*	*	*clefG2	*	*clefG2	*	*clefG2	*	*clefG2
*	*	*	*ITrd4c7	*	*	*	*	*	*	*	*	*	*	*	*	*	*	*
*k[]	*	*	*k[]	*	*k[]	*	*k[]	*	*k[]	*	*	*k[]	*	*k[]	*	*k[]	*	*k[]
*C:	*	*	*C:	*	*C:	*	*C:	*	*C:	*	*	*C:	*	*C:	*	*C:	*	*C:
*M3/4	*	*	*M3/4	*	*M3/4	*	*M3/4	*	*M3/4	*	*	*M3/4	*	*M3/4	*	*M3/4	*	*M3/4
=1	=1	=1	=1	=1	=1	=1	=1	=1	=1	=1	=1	=1	=1	=1	=1	=1	=1	=1
*all\right	*	*	*all\right	*	*all\right	*	*all\right	*	*all\right	*	*	*all\right	*	*all\right	*	*all\right	*	*all\right
*2\right	*	*	*2\right	*	*2\right	*	*2\right	*	*2\right	*	*	*2\right	*	*2\right	*	*2\right	*	*2\right
*	*	*above	*	*	*	*	*	*	*	*	*	*	*	*	*	*	*	*
!	!LO:DY:b:rj	!	!	!LO:DY:b:rj	!	!LO:DY:b:rj	!	!LO:DY:b:rj	!	!	!	!	!	!	!	!	!LO:DY:b:rj	!
32qqGG/LLL	f	.	32qqG/LLL	f	32qqG/LLL	f	32qqg/LLL	f	.	.	.	.	.	.	.	32qqg/LLL	f	.
32qqAA/	.	.	32qqA/	.	32qqA/	.	32qqa/	.	.	.	.	.	.	.	.	32qqa/	.	.
!LO:TX:a:i:t=uniso&colon;	!	!	!	!	!	!	!	!	!	!	!	!	!	!	!	!	!	!
!LO:TX:a:i:t=Moderato	!	!	!	!	!LO:TX:a:i:t=Moderato.	!	!LO:TX:a:i:t=Moderato	!	!	!	!	!	!	!	!	!	!	!LO:TX:a:t=4
!	!	!	!	!	!	!	!	!	!	!	!	!LO:TX:a:i:t=Moderato	!	!LO:TX:a:i:t=Moderato	!	!LO:TX:a:i:t=Moderato	!	!LO:TX:a:i:t=Moderato
32qqBB/JJJ	.	.	32qqB/JJJ	.	32qqB/JJJ	.	32qqb/JJJ	.	.	.	.	.	.	.	.	32qqb/JJJ	.	.
!	!	!	!	!	!	!	!	!	!	!	!LO:DY:a:rj	!	!LO:DY:b:rj	!	!	!	!	!
2.C/	.	.	2c/	.	2.c/	.	2.cc\	.	2.cc\	Cre-	f	2.c/	f	2.cc/	.	2.cc\	.	0.r
.	.	.	4r	.	.	.	.	.	.	.	.	.	.	.	.	.	.	.
=2	=2	=2	=2	=2	=2	=2	=2	=2	=2	=2	=2	=2	=2	=2	=2	=2	=2	=2
4GG/	.	.	4G/	.	4G/	.	4g/	.	4g\	-do	.	4G/	.	4g/	.	4g/	.	.
4r	.	.	4r	.	4r	.	4r	.	4r	.	.	4r	.	4r	.	4r	.	.
4r	.	.	4r	.	4r	.	4r	.	4r	.	.	4r	.	4r	.	4r	.	.
=3	=3	=3	=3	=3	=3	=3	=3	=3	=3	=3	=3	=3	=3	=3	=3	=3	=3	=3
2.E\	.	.	2.e\	.	2.e/	.	2.ee\	.	2.ee\	Cre-	.	2.e/	.	2.ee\	.	2.ee\	.	.
=4	=4	=4	=4	=4	=4	=4	=4	=4	=4	=4	=4	=4	=4	=4	=4	=4	=4	=4
4C/	.	.	4c/	.	4c/	.	4cc\	.	4cc\	-do	.	4c/	.	4cc\	.	4cc\	.	.
4r	.	.	4r	.	4r	.	4r	.	4r	.	.	4r	.	4r	.	4r	.	.
4r	.	.	4r	.	4r	.	4r	.	4r	.	.	4r	.	4r	.	4r	.	.
=5	=5	=5	=5	=5	=5	=5	=5	=5	=5	=5	=5	=5	=5	=5	=5	=5	=5	=5
4C/	.	X X 3_	4e 4c/	.	4g 4G/	.	4gg\	.	4ee\	Cre-	.	4c/	.	4c/	.	4cc\	.	4gg\
*	*	*	*	*	*rep	*	*	*	*	*	*	*	*	*	*	*	*	*
4C/	.	.	4e 4c/	.	4g 4G/	.	4gg\	.	4ee\	-do	.	4c/	.	4c/	.	4cc\	.	4gg\
*	*	*	*	*	*Xrep	*	*	*	*	*	*	*	*	*	*	*	*	*
*	*	*	*	*	*rep	*	*	*	*	*	*	*	*	*	*	*	*	*
4C/	.	.	4e 4c/	.	4g 4G/	.	4gg\	.	4ee\	in	.	4c/	.	4c/	.	4cc\	.	4gg\
*	*	*	*	*	*Xrep	*	*	*	*	*	*	*	*	*	*	*	*	*
!	!	!	!	!	!	!	!LO:LB:g=original	!	!	!	!	!	!	!	!	!	!	!
=6	=6	=6	=6	=6	=6	=6	=6	=6	=6	=6	=6	=6	=6	=6	=6	=6	=6	=6
2C/	.	6_ 4#_ 3-_	2e-X 2c/	.	2f#X 2A/	.	(>4aa\	.	2ee-X\	u-	.	2c/	.	2c/	.	2cc\	.	(>4aa\
.	.	.	.	.	.	.	4gg\)	.	.	.	.	.	.	.	.	.	.	4gg\)
4C/	.	.	4e- 4c/	.	4f# 4A/	.	4ff#X'\	.	4ee-\	-num	.	4c/	.	4c/	.	4cc\	.	4ff#X\
!	!	!	!	!	!	!	!	!	!LO:LB:g=original	!	!	!	!	!	!	!	!	!
=7	=7	=7	=7	=7	=7	=7	=7	=7	=7	=7	=7	=7	=7	=7	=7	=7	=7	=7
*	*	*	*	*	*	*	*	*	*	*	*	*	*	*rep	*	*	*	*2\right
2C/	.	X X 3	2en 2c/	.	2g 2G/	.	(>2gg\	.	2.een\	De-	.	2c/	.	2c/	.	2cc\	.	2gg\
4C/	.	.	4e 4c/	.	4g 4G/	.	4ee\)	.	.	.	.	4c/	.	4c/	.	4cc\	.	4ee\
*	*	*	*	*	*	*	*	*	*	*	*	*	*	*Xrep	*	*	*	*
=8	=8	=8	=8	=8	=8	=8	=8	=8	=8	=8	=8	=8	=8	=8	=8	=8	=8	=8
4C/	.	.	4e 4c/	.	4g 4G/	.	4cc\	.	4cc\	-um	.	4c/	.	4c/	.	4cc\	.	4cc\
4r	.	.	4r	.	4r	.	4r	.	4r	.	.	4r	.	4r	.	4r	.	4r
4r	.	.	4r	.	4r	.	4r	.	4r	.	.	4r	.	4r	.	4r	.	4r
=9	=9	=9	=9	=9	=9	=9	=9	=9	=9	=9	=9	=9	=9	=9	=9	=9	=9	=9
!	!LO:DY:b:rj	!	!	!LO:DY:b:rj	!	!	!	!	!	!	!	!	!LO:DY:b:rj	!	!LO:DY:b:rj	!	!	!
2.GG/	p	X X 3	2.d 2.B/	f	8.g'/L	.	8.gg'\L	.	2.dd\	pa-	.	2.G/	p	2.g/	p	2.b\	.	2.gg\
.	.	.	.	.	16f#X'/Jk	.	16ff#X'\Jk	.	.	.	.	.	.	.	.	.	.	.
.	.	.	.	.	8g'/L	.	8gg'\L	.	.	.	.	.	.	.	.	.	.	.
.	.	.	.	.	8d'/	.	8dd'\	.	.	.	.	.	.	.	.	.	.	.
.	.	.	.	.	8B'/	.	8b'\	.	.	.	.	.	.	.	.	.	.	.
.	.	.	.	.	8G'/J	.	8g'\J	.	.	.	.	.	.	.	.	.	.	.
!	!	!	!	!	!LO:LB:g=original	!	!	!	!	!	!	!	!	!	!	!	!	!
=10	=10	=10	=10	=10	=10	=10	=10	=10	=10	=10	=10	=10	=10	=10	=10	=10	=10	=10
2GG/	.	X 6 4	2e 2c/	.	8g'/L	.	8.gg'\L	.	2ee\	-trem	.	2G/	.	2g/	.	2cc\	.	2gg\
.	.	.	.	.	8f#X'/J	.	.	.	.	.	.	.	.	.	.	.	.	.
.	.	.	.	.	.	.	16ff#X'\Jk	.	.	.	.	.	.	.	.	.	.	.
.	.	.	.	.	8g'/L	.	8gg'\L	.	.	.	.	.	.	.	.	.	.	.
.	.	.	.	.	8e'/	.	8ee'\	.	.	.	.	.	.	.	.	.	.	.
4GG/	.	X 6 4#	4e 4c#X/	.	8c#X'/	.	8cc#X'\	.	4ee\	om-	.	4G/	.	4g/	.	4cc#X\	.	4gg\
.	.	.	.	.	8G'/J	.	8g'\J	.	.	.	.	.	.	.	.	.	.	.
=11	=11	=11	=11	=11	=11	=11	=11	=11	=11	=11	=11	=11	=11	=11	=11	=11	=11	=11
*	*	*	*	*	*	*	*	*	*	*	*	*rep	*	*rep	*	*	*	*
2GG/	.	X X 7	2f 2d/	.	8g'/L	.	8gg'\L	.	2ff\	-ni-	.	2G/	.	2g/	.	2dd\	.	2gg\
.	.	.	.	.	8d'/	.	8dd'\	.	.	.	.	.	.	.	.	.	.	.
.	.	.	.	.	8B'/	.	8b'\	.	.	.	.	.	.	.	.	.	.	.
.	.	.	.	.	8G'/	.	8g'\	.	.	.	.	.	.	.	.	.	.	.
4GG/	.	X 6 4	4e 4cn/	.	8e'/	.	8ee'\	.	4ee\	-po-	.	4G/	.	4g/	.	4ccn\	.	4gg\
.	.	.	.	.	8c'/J	.	8cc'\J	.	.	.	.	.	.	.	.	.	.	.
*	*	*	*	*	*	*	*	*	*	*	*	*Xrep	*	*Xrep	*	*	*	*
!	!	!	!	!	!	!	!	!	!	!	!	!	!	!	!	!LO:LB:g=original	!	!
=12	=12	=12	=12	=12	=12	=12	=12	=12	=12	=12	=12	=12	=12	=12	=12	=12	=12	=12
4GG/	.	X X 3	4d 4B/	.	4g 4G/	.	4gg 4b\	.	4dd\	-ten-	.	4G/	.	4g/	.	4b/	.	4gg\
4GG/	.	X X 8	4g 4G/	.	4g 4G/	.	4g 4G/	.	4g\	-tem	.	4G/	.	4g/	.	4g/	.	4gg\
!	!	!	!	!	!	!	!	!	!LO:TX:a:i:t=solo	!	!	!	!	!	!	!	!	!
4r	.	.	4r	.	4r	.	4r	.	4r	.	.	4r	.	4r	.	4r	.	4r
=13	=13	=13	=13	=13	=13	=13	=13	=13	=13	=13	=13	=13	=13	=13	=13	=13	=13	=13
!LO:TX:a:i:t=tasto Solo	!	!	!	!	!	!	!	!	!	!	!	!LO:TX:a:t=7	!	!LO:TX:a:t=7	!	!LO:TX:a:t=7	!	!LO:TX:a:t=7
!	!	!	!	!LO:DY:b:rj	!	!LO:DY:b	!	!LO:DY:b	!	!	!	!	!	!	!	!	!	!
2.E\	.	.	8r	p	8r	p	8r	p	4cc\	fa-	.	0.r	.	0.r	.	0.r	.	0.r
.	.	.	8G/	.	8c/	.	8g/	.	.	.	.	.	.	.	.	.	.	.
*	*	*	*tremolo	*	*	*	*	*	*	*	*	*	*	*	*	*	*	*
.	.	.	8G/L	.	8c/L	.	8g/L	.	4dd\	-cto-	.	.	.	.	.	.	.	.
.	.	.	8G/	.	8c/	.	8g/	.	.	.	.	.	.	.	.	.	.	.
.	.	.	8G/	.	8c/	.	8g/	.	4ee\	-rem	.	.	.	.	.	.	.	.
.	.	.	8G/J	.	8c/J	.	8g/J	.	.	.	.	.	.	.	.	.	.	.
=14	=14	=14	=14	=14	=14	=14	=14	=14	=14	=14	=14	=14	=14	=14	=14	=14	=14	=14
2.F\	.	.	8r	.	8r	.	8r	.	(>4ee\	cæ-	.	.	.	.	.	.	.	.
.	.	.	8A/	.	8d/	.	8f/	.	.	.	.	.	.	.	.	.	.	.
*	*	*	*	*	*tremolo	*	*	*	*	*	*	*	*	*	*	*	*	*
*	*	*	*	*	*	*	*tremolo	*	*	*	*	*	*	*	*	*	*	*
.	.	.	8A/L	.	8d/L	.	8f/L	.	16ee\LL	.	.	.	.	.	.	.	.	.
.	.	.	.	.	.	.	.	.	16dd\	.	.	.	.	.	.	.	.	.
.	.	.	8A/	.	8d/	.	8f/	.	16cc\	.	.	.	.	.	.	.	.	.
.	.	.	.	.	.	.	.	.	16b\JJ)	.	.	.	.	.	.	.	.	.
.	.	.	8A/	.	8d/	.	8f/	.	4a\	-li	.	.	.	.	.	.	.	.
.	.	.	8A/J	.	8d/J	.	8f/J	.	.	.	.	.	.	.	.	.	.	.
=15	=15	=15	=15	=15	=15	=15	=15	=15	=15	=15	=15	=15	=15	=15	=15	=15	=15	=15
4D\	.	.	8r	.	8r	.	8r	.	4dd\	cæ-	.	.	.	.	.	.	.	.
.	.	.	8A/	.	8d/	.	8f/	.	.	.	.	.	.	.	.	.	.	.
4C#X\	.	.	8r	.	8r	.	8r	.	4ee\	-li	.	.	.	.	.	.	.	.
.	.	.	8A/	.	8e/	.	8g/	.	.	.	.	.	.	.	.	.	.	.
4D\	.	.	8r	.	8r	.	8r	.	4ff\	et	.	.	.	.	.	.	.	.
.	.	.	8A/	.	8d/	.	8f/	.	.	.	.	.	.	.	.	.	.	.
=16	=16	=16	=16	=16	=16	=16	=16	=16	=16	=16	=16	=16	=16	=16	=16	=16	=16	=16
2.G\	.	.	8r	.	8r	.	8r	.	(>8.ff\L	ter-	.	.	.	.	.	.	.	.
.	.	.	8B/	.	8d/	.	8g/	.	.	.	.	.	.	.	.	.	.	.
.	.	.	.	.	.	.	.	.	16dd\Jk)	.	.	.	.	.	.	.	.	.
.	.	.	8B/L	.	8d/L	.	8g/L	.	4b\	-ra	.	.	.	.	.	.	.	.
.	.	.	8B/	.	8d/	.	8g/	.	.	.	.	.	.	.	.	.	.	.
.	.	.	8B/	.	8d/	.	8g/	.	4r	.	.	.	.	.	.	.	.	.
.	.	.	8B/J	.	8d/J	.	8g/J	.	.	.	.	.	.	.	.	.	.	.
=17	=17	=17	=17	=17	=17	=17	=17	=17	=17	=17	=17	=17	=17	=17	=17	=17	=17	=17
*	*	*	*rep	*	*rep	*	*rep	*	*	*	*	*	*	*	*	*	*	*
2.F\	.	.	8r	.	8r	.	8r	.	(>4b\	vi-	.	1.r	.	1.r	.	1.r	.	1.r
.	.	.	8B/	.	8d/	.	8g/	.	.	.	.	.	.	.	.	.	.	.
.	.	.	8B/L	.	8d/L	.	8g/L	.	4aa\)	.	.	.	.	.	.	.	.	.
.	.	.	8B/	.	8d/	.	8g/	.	.	.	.	.	.	.	.	.	.	.
.	.	.	8B/	.	8d/	.	8g/	.	4gg\	-si-	.	.	.	.	.	.	.	.
.	.	.	8B/J	.	8d/J	.	8g/J	.	.	.	.	.	.	.	.	.	.	.
*	*	*	*Xrep	*	*Xrep	*	*Xrep	*	*	*	*	*	*	*	*	*	*	*
!LO:LB:g=original	!	!	!LO:LB:g=original	!	!	!	!LO:LB:g=original	!	!	!	!	!	!	!	!	!	!	!
=18	=18	=18	=18	=18	=18	=18	=18	=18	=18	=18	=18	=18	=18	=18	=18	=18	=18	=18
!	!	!	!	!	!	!	!	!	!LO:N:vis=8.	!	!	!	!	!	!	!	!	!
4E\	.	.	8r	.	8r	.	8r	.	8gg\	-bi-	.	.	.	.	.	.	.	.
.	.	.	8G/	.	8c/	.	8g/	.	8ee\	-li-	.	.	.	.	.	.	.	.
4A\	.	.	8r	.	8r	.	8r	.	4cc\	-um	.	.	.	.	.	.	.	.
.	.	.	8A/	.	8c/	.	8e/	.	.	.	.	.	.	.	.	.	.	.
4F#X\	.	.	8r	.	8r	.	8r	.	8cc\	et	.	.	.	.	.	.	.	.
.	.	.	8c/	.	8e-X/	.	8a/	.	8dd\	in-	.	.	.	.	.	.	.	.
*	*	*	*	*	*	*	*Xtremolo	*	*	*	*	*	*	*	*	*	*	*
=19	=19	=19	=19	=19	=19	=19	=19	=19	=19	=19	=19	=19	=19	=19	=19	=19	=19	=19
2G\	.	.	8r	.	8r	.	8r	.	4.ee\	-vi-	.	2.r	.	2.r	.	2.r	.	2.r
.	.	.	8c/L	.	8en/L	.	8gL 8G/	.	.	.	.	.	.	.	.	.	.	.
.	.	.	8c/	.	8en/	.	8g 8G/	.	.	.	.	.	.	.	.	.	.	.
.	.	.	8c/J	.	8en/J	.	8gJ 8G/	.	(>16gg\LL	-si-	.	.	.	.	.	.	.	.
.	.	.	.	.	.	.	.	.	16ff\JJ)	.	.	.	.	.	.	.	.	.
4GG/	.	.	8r	.	8r	.	8r	.	8dd\L	-bi-	.	.	.	.	.	.	.	.
.	.	.	8B/	.	8d/	.	8f 8G/	.	(>16ff\L	-li-	.	.	.	.	.	.	.	.
.	.	.	.	.	.	.	.	.	16ee\JJ)	.	.	.	.	.	.	.	.	.
=20	=20	=20	=20	=20	=20	=20	=20	=20	=20	=20	=20	=20	=20	=20	=20	=20	=20	=20
!	!	!	!	!LO:DY:b:rj	!	!LO:DY:b:rj	!	!LO:DY:b:rj	!	!	!	!	!LO:DY:b:rj	!	!LO:DY:b:rj	!	!LO:DY:b	!
4C/	.	.	8G/L	f	8c/L	f	8e\L	f	4cc\	-um	.	8r	f	8r	f	8r	f	8r
.	.	.	16cL 16C/	.	16c/L	.	16cc\L	.	.	.	.	16c/LL	.	16cc\LL	.	16cc\LL	.	16ccc\LL
.	.	.	16cJJ 16C/	.	16c/JJ	.	16cc\JJ	.	.	.	.	16c/JJ	.	16cc\JJ	.	16cc\JJ	.	16ccc\JJ
*	*	*	*	*	*	*	*	*	*	*	*	*tremolo	*	*	*	*	*	*
*	*	*	*	*	*	*	*	*	*	*	*	*	*	*tremolo	*	*	*	*
*	*	*	*	*	*	*	*tremolo	*	*	*	*	*	*	*	*	*	*	*tremolo
4r	.	.	8c 8C/L	.	8c/L	.	8cc\L	.	4r	.	.	8c/L	.	8cc\L	.	8cc\L	.	8ccc\L
.	.	.	8c 8C/	.	8c/	.	8cc\	.	.	.	.	8c/	.	8cc\	.	8cc\	.	8ccc\
4r	.	.	8c 8C/	.	8c/	.	8cc\	.	4r	.	.	8c/	.	8cc\	.	8cc\	.	8ccc\
.	.	.	8c 8C/J	.	8c/J	.	8cc\J	.	.	.	.	8c/J	.	8cc\J	.	8cc\J	.	8ccc\J
*	*	*	*	*	*	*	*	*	*	*	*	*	*	*	*	*	*	*Xtremolo
*	*	*	*	*	*	*	*	*	*	*	*	*	*	*Xtremolo	*	*	*	*
*	*	*	*	*	*	*	*	*	*	*	*	*Xtremolo	*	*	*	*	*	*
!	!	!	!	!	!LO:LB:g=original	!	!	!	!LO:LB:g=original	!	!	!	!	!	!	!	!	!
=21	=21	=21	=21	=21	=21	=21	=21	=21	=21	=21	=21	=21	=21	=21	=21	=21	=21	=21
2C/	.	X 6 4	2c/	.	2f 2A/	.	16ff 16a\LL	.	4.ff\	et	.	2.r	.	2.r	.	4.a/	.	4.fff\
.	.	.	.	.	.	.	16ff 16a\	.	.	.	.	.	.	.	.	.	.	.
.	.	.	.	.	.	.	16ff 16a\	.	.	.	.	.	.	.	.	.	.	.
.	.	.	.	.	.	.	16ff 16a\	.	.	.	.	.	.	.	.	.	.	.
.	.	.	.	.	.	.	16ff 16a\	.	.	.	.	.	.	.	.	.	.	.
!	!	!	!	!	!	!	!	!	!	!	!	!LO:TX:a:t=I	!	!LO:TX:a:t=I.	!	!	!	!
.	.	.	.	.	.	.	16ff 16a\	.	.	.	.	.	.	.	.	.	.	.
.	.	.	.	.	.	.	16ff 16a\	.	8ff\	in	.	.	.	.	.	8a/	.	8fff\
.	.	.	.	.	.	.	16ff 16a\JJ	.	.	.	.	.	.	.	.	.	.	.
4C/	.	7# 6- 4	4B/	.	4f 4A-X/	.	16ff 16dd\LL	.	8ff\	Je-	.	.	.	.	.	8a-X/L	.	8fff\L
.	.	.	.	.	.	.	16ff 16dd\	.	.	.	.	.	.	.	.	.	.	.
.	.	.	.	.	.	.	16ff 16dd\	.	8ff\	-sum	.	.	.	.	.	8a-/J	.	8fff\J
.	.	.	.	.	.	.	16ff 16dd\JJ	.	.	.	.	.	.	.	.	.	.	.
*	*	*	*	*	*	*	*Xtremolo	*	*	*	*	*	*	*	*	*	*	*
=22	=22	=22	=22	=22	=22	=22	=22	=22	=22	=22	=22	=22	=22	=22	=22	=22	=22	=22
4C/	.	8 5 3	2e 2c/	.	4g 4G/	.	4ee 4cc\	.	4ee\	Chri-	.	8r	.	8r	.	8g/L	.	4eee\
.	.	.	.	.	.	.	.	.	.	.	.	16c/LL	.	16cc\LL	.	16cc/L	.	.
.	.	.	.	.	.	.	.	.	.	.	.	16c/JJ	.	16cc\JJ	.	16cc/JJ	.	.
4C/	.	.	.	.	4g 4G/	.	4cc\	.	4cc\	-ste	.	8e/L	.	8ee\L	.	8ee\L	.	4ccc\
.	.	.	.	.	.	.	.	.	.	.	.	8g/	.	8gg\	.	8gg\	.	.
4r	.	.	4e 4c/	.	4r	.	4r	.	4r	.	.	8e/	.	8ee\	.	8ee\	.	4r
.	.	.	.	.	.	.	.	.	.	.	.	8c/J	.	8cc\J	.	8cc\J	.	.
=23	=23	=23	=23	=23	=23	=23	=23	=23	=23	=23	=23	=23	=23	=23	=23	=23	=23	=23
*	*	*	*	*	*	*	*tremolo	*	*	*	*	*	*	*	*	*	*	*
!LO:N:vis=2.	!	!	!	!	!	!	!	!	!	!	!	!LO:TX:a:t=2	!	!LO:TX:a:t=2	!	!	!	!
2C/	.	X 6 4	2c/	.	2f 2A/	.	8ff 8a\L	.	4ff\	fi-	.	1.r	.	1.r	.	4a/	.	4.fff\
.	.	.	.	.	.	.	8ff 8a\	.	.	.	.	.	.	.	.	.	.	.
.	.	.	.	.	.	.	8ff 8a\	.	8ff\	-li-	.	.	.	.	.	8a/L	.	.
.	.	.	.	.	.	.	8ff 8a\J	.	8ff\	-um	.	.	.	.	.	8a/J	.	8fff\
4C/	.	7n 6- 4	4B/	.	4f 4A-X/	.	8ff 8dd\L	.	8ff\	De-	.	.	.	.	.	8a-X/L	.	8fff\L
.	.	.	.	.	.	.	8ff 8dd\J	.	8ff\	-i	.	.	.	.	.	8a-/J	.	8fff\J
*	*	*	*	*	*	*	*Xtremolo	*	*	*	*	*	*	*	*	*	*	*
=24	=24	=24	=24	=24	=24	=24	=24	=24	=24	=24	=24	=24	=24	=24	=24	=24	=24	=24
!	!	!	!LO:TX:a:i:t=Andte	!	!	!	!	!	!	!	!	!	!	!	!	!	!	!
4C/	.	8_ 5_ 3_	4e 4c/	.	4g 4G/	.	4ee 4cc\	.	4ee\	pa-	.	.	.	.	.	4g/	.	4eee\
!	!	!	!	!	!	!	!	!	!LO:TX:a:i:t=Andte	!	!	!	!	!	!	!	!	!
4C/	.	.	4e 4c/	.	4g 4G/	.	4cc\	.	4cc\	-tris	.	.	.	.	.	4cc/	.	4ccc\
!	!	!	!	!	!LO:TX:a:i:t=Andante	!	!LO:TX:a:i:t=Andante	!	!	!	!	!	!	!	!	!LO:TX:a:i:t=Andante	!	!
4r	.	X X X	4r	.	4r	.	4r	.	4r	.	.	.	.	.	.	4r	.	4r
!	!	!	!	!	!	!	!	!	!	!	!	!LO:LB:g=original	!	!	!	!	!	!
=25||	=25||	=25||	=25||	=25||	=25||	=25||	=25||	=25||	=25||	=25||	=25||	=25||	=25||	=25||	=25||	=25||	=25||	=25||
*k[b-]	*	*	*k[b-]	*	*k[b-]	*	*k[b-]	*	*k[b-]	*	*	*	*	*	*	*	*	*
*M4/4	*	*	*M4/4	*	*M4/4	*	*M4/4	*	*M4/4	*	*	*M4/4	*	*M4/4	*	*M4/4	*	*M4/4
*met(c)	*	*	*met(c)	*	*met(c)	*	*met(c)	*	*met(c)	*	*	*met(c)	*	*met(c)	*	*met(c)	*	*met(c)
!	!	!	!LO:TX:a:i:t=Solo	!	!LO:TX:b:i:t=Solo	!	!LO:TX:b:i:t=Solo:rj	!	!LO:TX:a:i:t=Solo	!	!	!LO:TX:a:t=20	!	!LO:TX:a:t=20	!	!	!	!LO:TX:a:i:t=Andante
!LO:TX:b:i:t=Pedale Solo	!	!	!	!	!	!	!	!	!	!	!	!LO:TX:a:i:t=Andte	!	!LO:TX:a:i:t=Andte	!	!LO:TX:a:t=20	!	!LO:TX:a:t=20
!	!	!	!	!	!	!LO:DY:b:rj	!	!	!	!	!	!	!	!	!	!	!	!
2F\	.	.	2F/	.	2c/	mf	2a 2f/	.	2cc\	Et	.	1r	.	1r	.	1r	.	1r
4F\	.	.	4F/	.	4c/	.	4a 4f/	.	4cc\	in-	.	.	.	.	.	.	.	.
4F\	.	.	4F/	.	4c/	.	4a 4f/	.	4cc\	-car-	.	.	.	.	.	.	.	.
=26	=26	=26	=26	=26	=26	=26	=26	=26	=26	=26	=26	=26	=26	=26	=26	=26	=26	=26
4.F\	.	.	4.F/	.	4.g#X 4.Bn/	.	4.f/	.	4.dd\	-na-	.	1r	.	1r	.	1r	.	1r
8F\	.	.	8F/	.	8g# 8B/	.	8f/	.	8dd\	-tus	.	.	.	.	.	.	.	.
4F\	.	.	4F/	.	4c/	.	4a 4f/	.	4cc\	est	.	.	.	.	.	.	.	.
4r	.	.	4r	.	4r	.	4r	.	4cc\	de	.	.	.	.	.	.	.	.
=27	=27	=27	=27	=27	=27	=27	=27	=27	=27	=27	=27	=27	=27	=27	=27	=27	=27	=27
2d\	.	.	2d/	.	2f/	.	2b-\	.	2ff\	Spi-	.	1r	.	1r	.	1r	.	1r
4c\	.	.	4c/	.	4f/	.	4b-\	.	4ee\	-ri-	.	.	.	.	.	.	.	.
4B-\	.	.	4B-/	.	4f/	.	4b-\	.	4dd\	-to	.	.	.	.	.	.	.	.
=28	=28	=28	=28	=28	=28	=28	=28	=28	=28	=28	=28	=28	=28	=28	=28	=28	=28	=28
2B-\	.	.	2B-/	.	2f/	.	2b- 2d/	.	2dd\	San-	.	1r	.	1r	.	1r	.	1r
4F\	.	.	4F/	.	4c/	.	4a 4f/	.	4cc\	-cto	.	.	.	.	.	.	.	.
4r	.	.	4r	.	4r	.	4r	.	4r	.	.	.	.	.	.	.	.	.
=29	=29	=29	=29	=29	=29	=29	=29	=29	=29	=29	=29	=29	=29	=29	=29	=29	=29	=29
4.D\	.	.	4.d/	.	4.d/	.	4.a 4.f/	.	4.a\	ex	.	1r	.	1r	.	1r	.	1r
8D\	.	.	8d/	.	8d/	.	8a 8f/	.	8a\	ma-	.	.	.	.	.	.	.	.
4.C\	.	.	4c/	.	4e-X/	.	4a 4f#X/	.	4a\	-ri-	.	.	.	.	.	.	.	.
.	.	.	4c/	.	4e-/	.	4a 4f#/	.	4a\	-a	.	.	.	.	.	.	.	.
8C\	.	.	.	.	.	.	.	.	.	.	.	.	.	.	.	.	.	.
!	!	!	!	!	!	!	!LO:LB:g=original	!	!	!	!	!	!	!	!	!	!	!
=30	=30	=30	=30	=30	=30	=30	=30	=30	=30	=30	=30	=30	=30	=30	=30	=30	=30	=30
4.BB-/	.	.	4.B-/	.	4.d/	.	4.g/	.	4.g\	Vir-	.	1r	.	1r	.	1r	.	1r
8F#X\	.	.	8F#X/	.	8c/	.	8a 8d/	.	8a\	-gi-	.	.	.	.	.	.	.	.
4G\	.	.	4G/	.	4d 4B-/	.	4g/	.	4b-\	-ne	.	.	.	.	.	.	.	.
4GG/	.	.	4B-/	.	4d/	.	4g/	.	4dd\	et	.	.	.	.	.	.	.	.
!LO:LB:g=original	!	!	!	!	!	!	!	!	!	!	!	!	!	!	!	!	!	!
=31	=31	=31	=31	=31	=31	=31	=31	=31	=31	=31	=31	=31	=31	=31	=31	=31	=31	=31
2C/	.	.	2C/	.	2B-/	.	4.e/	.	4dd\	ho-	.	1r	.	1r	.	1r	.	1r
.	.	.	.	.	.	.	.	.	4e/	-mo	.	.	.	.	.	.	.	.
.	.	.	.	.	.	.	8e/	.	.	.	.	.	.	.	.	.	.	.
!	!	!	!	!	!	!	!	!	!LO:LB:g=original	!	!	!	!	!	!	!	!	!
4C/	.	.	4C/	.	4A/	.	4c/	.	(>8g\L	fa-	.	.	.	.	.	.	.	.
.	.	.	.	.	.	.	.	.	8f\J)	.	.	.	.	.	.	.	.	.
4C/	.	.	4C/	.	8d/L	.	4f/	.	(>8b-\L	-ctus	.	.	.	.	.	.	.	.
.	.	.	.	.	8c/J	.	.	.	8a\J)	.	.	.	.	.	.	.	.	.
!	!	!	!LO:LB:g=original	!	!	!	!	!	!	!	!	!	!	!	!	!	!	!
=32	=32	=32	=32	=32	=32	=32	=32	=32	=32	=32	=32	=32	=32	=32	=32	=32	=32	=32
2C/	.	.	2C/	.	2c/	.	2e/	.	2g\	est	.	1r	.	1r	.	1r	.	1r
2r	.	.	2r	.	2ra	.	2r	.	2r	.	.	.	.	.	.	.	.	.
!	!	!	!	!	!LO:LB:g=original	!	!	!	!	!	!	!	!	!	!	!	!	!
=33	=33	=33	=33	=33	=33	=33	=33	=33	=33	=33	=33	=33	=33	=33	=33	=33	=33	=33
4Bn\	.	.	4BX/	.	2.d/	.	2.f/	.	2.g\	cru-	.	1r	.	1r	.	1r	.	1r
4G\	.	.	4G/	.	.	.	.	.	.	.	.	.	.	.	.	.	.	.
4A\	.	.	4A/	.	.	.	.	.	.	.	.	.	.	.	.	.	.	.
4B\	.	.	4B/	.	4d/	.	4f/	.	4g\	-ci-	.	.	.	.	.	.	.	.
=34	=34	=34	=34	=34	=34	=34	=34	=34	=34	=34	=34	=34	=34	=34	=34	=34	=34	=34
2c\	.	.	2c/	.	2c/	.	2e 2G/	.	2g\	-fi-	.	1r	.	1r	.	1r	.	1r
4C/	.	.	4C/	.	4c/	.	4e 4G/	.	4cc\	-xus	.	.	.	.	.	.	.	.
4r	.	.	4r	.	4r	.	4r	.	4r	.	.	.	.	.	.	.	.	.
=35	=35	=35	=35	=35	=35	=35	=35	=35	=35	=35	=35	=35	=35	=35	=35	=35	=35	=35
4F\	.	.	4F/	.	4d/	.	4f/	.	4a\	e-	.	1r	.	1r	.	1r	.	1r
4F\	.	.	4F/	.	4d/	.	4a/	.	4dd\	-ti-	.	.	.	.	.	.	.	.
4G\	.	.	4G/	.	4e/	.	4g/	.	4cc\	-am	.	.	.	.	.	.	.	.
4G\	.	.	4G/	.	4d/	.	4g/	.	4bn\	pro	.	.	.	.	.	.	.	.
=36	=36	=36	=36	=36	=36	=36	=36	=36	=36	=36	=36	=36	=36	=36	=36	=36	=36	=36
2C/	.	.	2C/	.	2c/	.	2e/	.	2cc\	no-	.	1r	.	1r	.	1r	.	1r
4C/	.	.	4C/	.	4c/	.	4e/	.	4g\	-bis	.	.	.	.	.	.	.	.
4r	.	.	4r	.	4r	.	4r	.	4r	.	.	.	.	.	.	.	.	.
=37	=37	=37	=37	=37	=37	=37	=37	=37	=37	=37	=37	=37	=37	=37	=37	=37	=37	=37
4Bn\	.	.	4BX/	.	1d	.	1f	.	1g	pro	.	1r	.	1r	.	1r	.	1r
4G\	.	.	4G/	.	.	.	.	.	.	.	.	.	.	.	.	.	.	.
4A\	.	.	4A/	.	.	.	.	.	.	.	.	.	.	.	.	.	.	.
4B\	.	.	4B/	.	.	.	.	.	.	.	.	.	.	.	.	.	.	.
=38	=38	=38	=38	=38	=38	=38	=38	=38	=38	=38	=38	=38	=38	=38	=38	=38	=38	=38
2c\	.	.	2c/	.	2c/	.	2e 2G/	.	2g\	no-	.	1r	.	1r	.	1r	.	1r
4C/	.	.	4C/	.	4c/	.	4e 4G/	.	4cc\	-bis	.	.	.	.	.	.	.	.
4r	.	.	4r	.	4r	.	4r	.	4cc\	sub	.	.	.	.	.	.	.	.
=39	=39	=39	=39	=39	=39	=39	=39	=39	=39	=39	=39	=39	=39	=39	=39	=39	=39	=39
2F\	.	.	4F/	.	4d/	.	4f/	.	4a\	pon-	.	1r	.	1r	.	1r	.	1r
.	.	.	4F/	.	4d/	.	4a/	.	4dd\	-ti-	.	.	.	.	.	.	.	.
2G\	.	.	4G/	.	4e/	.	4g/	.	4cc\	-o	.	.	.	.	.	.	.	.
.	.	.	4G/	.	4d/	.	4g/	.	4bn\	pi-	.	.	.	.	.	.	.	.
=40	=40	=40	=40	=40	=40	=40	=40	=40	=40	=40	=40	=40	=40	=40	=40	=40	=40	=40
2C/	.	.	2C/	.	2c/	.	2e/	.	2cc\	-la-	.	1r	.	1r	.	1r	.	1r
4C/	.	.	4C/	.	4c/	.	4e/	.	4cc\	-to	.	.	.	.	.	.	.	.
4r	.	.	4r	.	4r	.	4r	.	4r	.	.	.	.	.	.	.	.	.
=41	=41	=41	=41	=41	=41	=41	=41	=41	=41	=41	=41	=41	=41	=41	=41	=41	=41	=41
2D\	.	.	2D/	.	2f#X 2A/	.	2cc 2d/	.	2cc\	pas-	.	1r	.	1r	.	1r	.	1r
2D\	.	.	2D/	.	2d/	.	2f#X/	.	2cc\	-sus	.	.	.	.	.	.	.	.
=42	=42	=42	=42	=42	=42	=42	=42	=42	=42	=42	=42	=42	=42	=42	=42	=42	=42	=42
2G\	.	.	2G/	.	2d/	.	2g/	.	2bn\	et	.	1r	.	1r	.	1r	.	1r
2G\	.	.	2G/	.	2d/	.	2g/	.	2b\	se-	.	.	.	.	.	.	.	.
=43	=43	=43	=43	=43	=43	=43	=43	=43	=43	=43	=43	=43	=43	=43	=43	=43	=43	=43
2C/	.	.	2C/	.	2c/	.	2e/	.	2a\	-pul-	.	1r	.	1r	.	1r	.	1r
2D/	.	.	2D/	.	2c/	.	2f#X/	.	2dd\	-tus	.	.	.	.	.	.	.	.
=44	=44	=44	=44	=44	=44	=44	=44	=44	=44	=44	=44	=44	=44	=44	=44	=44	=44	=44
2GG/	.	.	2G/	.	2Bn/	.	2d/	.	2g\	est	.	1r	.	1r	.	1r	.	1r
!	!	!	!LO:TX:a:i:t=Tempo 1o	!	!LO:TX:a:i:t=Tempo I	!	!	!	!LO:TX:a:i:t=Tempo I	!	!	!	!	!	!	!	!	!
2r	.	.	2r	.	2ra	.	2r	.	2r	.	.	.	.	.	.	.	.	.
!	!	!	!	!	!	!	!LO:LB:g=original	!	!LO:PB:g=original	!	!	!	!	!	!	!	!	!LO:LB:g=original
!LO:LB:g=original	!	!	!	!	!	!	!	!	!	!	!	!	!	!LO:LB:g=original	!	!	!	!
=45||	=45||	=45||	=45||	=45||	=45||	=45||	=45||	=45||	=45||	=45||	=45||	=45||	=45||	=45||	=45||	=45||	=45||	=45||
*k[]	*	*	*k[]	*	*k[]	*	*k[]	*	*k[]	*	*	*k[]	*	*k[]	*	*k[]	*	*k[]
*M3/4	*	*	*M3/4	*	*M3/4	*	*M3/4	*	*M3/4	*	*	*M3/4	*	*M3/4	*	*M3/4	*	*M3/4
!	!	!	!	!	!	!	!	!	!	!	!	!LO:TX:a:i:t=Tempo I	!	!LO:TX:a:t=7	!	!	!LO:DY:b:rj	!LO:TX:a:t=7.
!LO:TX:a:i:t=Tempo I	!	!	!	!	!	!	!LO:TX:a:i:t=Tempo I.	!	!	!	!	!LO:TX:a:t=7	!	!LO:TX:a:i:t=Tempo I	!	!LO:TX:a:i:t=Tempo I	!	!LO:TX:a:i:t=Temp I
4GG/	.	X 5_ 3_	4d 4B/	.	4g 4G/	.	(<8g/L	.	4g\	Et	.	0.r	.	0.r	.	4g/	mf	0.r
.	.	.	.	.	.	.	8f#X/J	.	.	.	.	.	.	.	.	.	.	.
!	!	!	!LO:TX:a:t=I	!	!	!	!	!	!	!	!	!	!	!	!	!	!	!
4GG/	.	.	4d 4B/	.	4g 4G/	.	8g/L	.	4g\	re-	.	.	.	.	.	4g/	.	.
.	.	.	.	.	.	.	8f#/J	.	.	.	.	.	.	.	.	.	.	.
4GG/	.	.	4d 4B/	.	4g 4G/	.	8g/L)	.	4g\	-sur-	.	.	.	.	.	4g/	.	.
.	.	X X X	.	.	.	.	8f#/J	.	.	.	.	.	.	.	.	.	.	.
!	!	!	!	!	!LO:LB:g=original	!	!	!	!	!	!	!	!	!	!	!	!	!
=46	=46	=46	=46	=46	=46	=46	=46	=46	=46	=46	=46	=46	=46	=46	=46	=46	=46	=46
*	*	*	*rep	*	*	*	*rep	*	*	*	*	*	*	*	*	*	*	*
4GG/	.	.	4d 4B/	.	4g 4G/	.	(<8g/L	.	4g\	-re-	.	.	.	.	.	4g/	.	.
.	.	.	.	.	.	.	8f#X/J	.	.	.	.	.	.	.	.	.	.	.
4GG/	.	.	4d 4B/	.	4g 4G/	.	8g/L	.	4g\	-xit	.	.	.	.	.	4g/	.	.
.	.	.	.	.	.	.	8f#/J	.	.	.	.	.	.	.	.	.	.	.
4GG/	.	.	4d 4B/	.	4g 4G/	.	8g/L)	.	4g\	ad	.	.	.	.	.	4g/	.	.
.	.	.	.	.	.	.	8f#/J	.	.	.	.	.	.	.	.	.	.	.
*	*	*	*Xrep	*	*	*	*Xrep	*	*	*	*	*	*	*	*	*	*	*
=47	=47	=47	=47	=47	=47	=47	=47	=47	=47	=47	=47	=47	=47	=47	=47	=47	=47	=47
*rep	*	*	*rep	*	*rep	*	*tremolo	*	*	*	*	*	*	*	*	*tremolo	*	*
!	!	!	!LO:TX:a:t=3	!	!	!	!	!	!	!	!	!	!	!	!	!	!	!
!	!	!	!LO:TX:a:t=3	!	!	!	!	!	!	!	!	!	!	!	!	!	!	!
4GG/	.	.	4d 4B/	.	4g 4G/	.	(>8b\L	.	4b\	ter-	.	.	.	.	.	(<8g/L	.	.
.	.	.	.	.	.	.	8a#X\	.	.	.	.	.	.	.	.	8f#X/	.	.
4GG/	.	.	4d 4B/	.	4g 4G/	.	8b\	.	4b\	-ti-	.	.	.	.	.	8g/	.	.
.	.	.	.	.	.	.	8a#X\	.	.	.	.	.	.	.	.	8f#X/	.	.
4GG/	.	.	4d 4B/	.	4g 4G/	.	8b\	.	4b\	-a	.	.	.	.	.	8g/	.	.
.	.	.	.	.	.	.	8a#X\J)	.	.	.	.	.	.	.	.	8f#X/J)	.	.
*Xrep	*	*	*Xrep	*	*Xrep	*	*	*	*	*	*	*	*	*	*	*	*	*
!	!	!	!LO:LB:g=original	!	!	!	!	!	!	!	!	!	!	!	!	!	!	!
=48	=48	=48	=48	=48	=48	=48	=48	=48	=48	=48	=48	=48	=48	=48	=48	=48	=48	=48
*rep	*	*	*rep	*	*rep	*	*rep	*	*	*	*	*	*	*	*	*rep	*	*
4GG/	.	.	4d 4B/	.	4g 4G/	.	(>8b\L	.	4b\	di-	.	.	.	.	.	(<8g/L	.	.
.	.	.	.	.	.	.	8a#X\	.	.	.	.	.	.	.	.	8f#X/	.	.
4GG/	.	.	4d 4B/	.	4g 4G/	.	8b\	.	4b\	-e	.	.	.	.	.	8g/	.	.
.	.	.	.	.	.	.	8a#X\	.	.	.	.	.	.	.	.	8f#X/	.	.
4GG/	.	.	4d 4B/	.	4g 4G/	.	8b\	.	4r	.	.	.	.	.	.	8g/	.	.
.	.	.	.	.	.	.	8a#X\J)	.	.	.	.	.	.	.	.	8f#X/J)	.	.
*Xrep	*	*	*Xrep	*	*Xrep	*	*Xrep	*	*	*	*	*	*	*	*	*Xrep	*	*
=49	=49	=49	=49	=49	=49	=49	=49	=49	=49	=49	=49	=49	=49	=49	=49	=49	=49	=49
*	*	*	*rep	*	*	*	*	*	*	*	*	*	*	*	*	*	*	*
!	!LO:DY:b:rj	!	!	!	!	!	!	!	!	!	!	!	!	!	!	!	!	!
4GG/	f	X X 7_	4d 4B/	.	4f 4G/	.	(>8dd\L	.	4dd\	et	.	1.r	.	2.r	.	(>8b\L	.	1.r
.	.	.	.	.	.	.	8cc#X\	.	.	.	.	.	.	.	.	8a#X\	.	.
4GG/	.	.	4d 4B/	.	4f 4G/	.	8dd\	.	4dd\	re-	.	.	.	.	.	8b\	.	.
.	.	.	.	.	.	.	8cc#X\	.	.	.	.	.	.	.	.	8a#X\	.	.
4GG/	.	.	4d 4B/	.	4f 4G/	.	8dd\	.	4dd\	-sur-	.	.	.	.	.	8b\	.	.
.	.	.	.	.	.	.	8cc#X\J)	.	.	.	.	.	.	.	.	8a#X\J)	.	.
*	*	*	*Xrep	*	*	*	*	*	*	*	*	*	*	*	*	*	*	*
=50	=50	=50	=50	=50	=50	=50	=50	=50	=50	=50	=50	=50	=50	=50	=50	=50	=50	=50
*rep	*	*	*	*	*	*	*	*	*	*	*	*	*	*	*	*	*	*
4GG/	.	.	4d 4B/	.	4f 4G/	.	(>8dd\L	.	4dd\	-re-	.	.	.	1.r	.	(>8b\L	.	.
.	.	.	.	.	.	.	8ccn\	.	.	.	.	.	.	.	.	8a#X\	.	.
4GG/	.	.	4d 4B/	.	4f 4G/	.	8dd\	.	4dd\	-xit	.	.	.	.	.	8b\	.	.
.	.	.	.	.	.	.	8ccn\J)	.	.	.	.	.	.	.	.	8a#X\J)	.	.
4GG/	.	6 4# 3-	4B-/	.	4e/	.	4ee 4b-X\	.	4ee\	ad	.	.	.	.	.	4cc#X\	.	.
*Xrep	*	*	*	*	*	*	*	*	*	*	*	*	*	*	*	*	*	*
!	!	!	!	!	!	!	!	!	!	!	!	!	!	!	!	!LO:LB:g=original	!	!
=51	=51	=51	=51	=51	=51	=51	=51	=51	=51	=51	=51	=51	=51	=51	=51	=51	=51	=51
*rep	*	*	*rep	*	*rep	*	*	*	*	*	*	*	*	*	*	*	*	*
4GG/	.	.	4d 4B/	.	4f 4G/	.	4ff\	.	4ff\	ter-	.	2.r	.	.	.	4dd\	.	2.r
4GG/	.	.	4d 4B/	.	4f 4G/	.	4ff\	.	4ff\	-ti-	.	.	.	.	.	4dd\	.	.
4GG/	.	.	4B-/	.	4e/	.	4ee\	.	4ee\	-a	.	.	.	.	.	4cc#X\	.	.
*Xrep	*	*	*Xrep	*	*Xrep	*	*	*	*	*	*	*	*	*	*	*	*	*
=52	=52	=52	=52	=52	=52	=52	=52	=52	=52	=52	=52	=52	=52	=52	=52	=52	=52	=52
!	!	!	!	!	!	!	!	!	!	!	!	!	!	!	!	!	!	!LO:N:vis=1
!	!	!	!	!	!	!	!	!	!	!	!	!LO:N:vis=1	!	!LO:N:vis=1	!	!	!	!
4GG/	.	X X 7	4d 4BnX/	.	4f 4G/	.	4ff 4dd\	.	4ff\	di-	.	2.r;>	.	2.r;>	.	4b\	.	2.r;>
4GG/	.	.	4d 4B/	.	4f 4G/	.	4ff 4dd\	.	4ff\	-e	.	.	.	.	.	4b\	.	.
!	!	!	!LO:TX:a:i:t=Tempo Io	!	!	!	!LO:TX:a:i:t=Tempo I.	!	!	!	!	!	!	!	!	!LO:TX:a:i:t=Tempo I	!	!
4r;>	.	.	4r;>	.	4r;>	.	4r;>	.	4r;>	.	.	.	.	.	.	4r	.	.
=53||	=53||	=53||	=53||	=53||	=53||	=53||	=53||	=53||	=53||	=53||	=53||	=53||	=53||	=53||	=53||	=53||	=53||	=53||
*M3/4	*	*	*M3/4	*	*M3/4	*	*M3/4	*	*M3/4	*	*	*M3/4	*	*M3/4	*	*M3/4	*	*M3/4
*	*	*	*k[]	*	*	*	*	*	*	*	*	*	*	*	*	*	*	*
!	!LO:DY:b:rj	!	!	!LO:DY:b:rj	!	!LO:DY:b:rj	!	!	!	!	!	!	!	!	!	!	!	!
32qqGG/LLL	f	.	32qqG/LLL	f	32qqG/LLL	f	32qqg/LLL	.	.	.	.	.	.	.	.	32qqg/LLL	.	.
32qqAA/	.	.	32qqA/	.	32qqA/	.	32qqa/	.	.	.	.	.	.	.	.	32qqa/	.	.
!	!	!	!	!	!	!	!	!	!	!	!	!	!	!	!	!	!	!LO:TX:a:t=4
!LO:TX:a:i:t=uniso&colon;	!	!	!	!	!	!	!	!	!LO:TX:a:i:t=Tempo Io	!	!	!LO:TX:a:i:t=Tempo I	!	!LO:TX:a:i:t=Tempo I	!	!	!	!LO:TX:a:i:t=Temp I
32qqBB/JJJ	.	.	32qqB/JJJ	.	32qqB/JJJ	.	32qqb/JJJ	.	.	.	.	.	.	.	.	32qqb/JJJ	.	.
!	!	!	!	!	!LO:N:vis=2	!	!	!	!	!	!	!	!LO:DY:b:rj	!	!LO:DY:b:rj	!	!	!
2.C/	.	.	2.c/	.	2.c/	.	2.cc\	.	2.cc\	Cre-	.	2.c/	f	2.cc\	f	2.cc\	.	0.r
=54	=54	=54	=54	=54	=54	=54	=54	=54	=54	=54	=54	=54	=54	=54	=54	=54	=54	=54
4GG/	.	.	4G/	.	4G/	.	4g/	.	4g\	-do	.	4G/	.	4g/	.	4g/	.	.
4r	.	.	4r	.	4r	.	4r	.	4r	.	.	4r	.	4r	.	4r	.	.
4r	.	.	4r	.	4r	.	4r	.	4r	.	.	4r	.	4r	.	4r	.	.
=55	=55	=55	=55	=55	=55	=55	=55	=55	=55	=55	=55	=55	=55	=55	=55	=55	=55	=55
2.E\	.	.	2e\	.	2.e/	.	2.ee\	.	2.ee\	Cre-	.	2.e/	.	2.ee\	.	2.ee\	.	.
.	.	.	4r	.	.	.	.	.	.	.	.	.	.	.	.	.	.	.
=56	=56	=56	=56	=56	=56	=56	=56	=56	=56	=56	=56	=56	=56	=56	=56	=56	=56	=56
!	!	!	!	!	!	!	!	!	!LO:N:vis=4.	!	!	!	!	!	!	!	!	!
4C/	.	.	4c/	.	4c/	.	4cc\	.	4cc\	-do	.	4c/	.	4cc\	.	4cc\	.	.
4r	.	.	4r	.	4r	.	4r	.	4r	.	.	4r	.	4r	.	4r	.	.
4r	.	.	4r	.	4r	.	4r	.	4r	.	.	4r	.	4r	.	4r	.	.
=57	=57	=57	=57	=57	=57	=57	=57	=57	=57	=57	=57	=57	=57	=57	=57	=57	=57	=57
4C/	.	X X 3_	4e 4c/	.	4g 4G/	.	4gg\	.	4ee\	Cre-	.	4c/	.	4c/	.	4cc\	.	4gg\
*	*	*	*rep	*	*	*	*	*	*	*	*	*	*	*	*	*	*	*
4C/	.	.	4e 4c/	.	4g 4G/	.	4gg\	.	4ee\	-do	.	4c/	.	4c/	.	4cc\	.	4gg\
*	*	*	*Xrep	*	*	*	*	*	*	*	*	*	*	*	*	*	*	*
*	*	*	*rep	*	*	*	*	*	*	*	*	*	*	*	*	*	*	*
4C/	.	.	4e 4c/	.	4g 4G/	.	4gg\	.	4ee\	in	.	4c/	.	4c/	.	4cc\	.	4gg\
*	*	*	*Xrep	*	*	*	*	*	*	*	*	*	*	*	*	*	*	*
=58	=58	=58	=58	=58	=58	=58	=58	=58	=58	=58	=58	=58	=58	=58	=58	=58	=58	=58
2C/	.	6_ 4#_ 3-_	2e-X 2c/	.	2f#X 2A/	.	(>4aa\	.	4ee-X\	spi-	.	2c/	.	2c/	.	2cc\	.	(>4aa\
.	.	.	.	.	.	.	4gg\	.	4ee-\	-ri-	.	.	.	.	.	.	.	4gg\)
4C/	.	.	4e- 4c/	.	4f# 4A/	.	4ff#X\)	.	4ee-\	-to	.	4c/	.	4c/	.	4cc\	.	4ff#X\
=59	=59	=59	=59	=59	=59	=59	=59	=59	=59	=59	=59	=59	=59	=59	=59	=59	=59	=59
*	*	*	*	*	*	*	*	*	*	*	*	*	*	*	*	*rep	*	*
2C/	.	X X 3	2en 2c/	.	2g 2G/	.	2gg\	.	2.een\	San-	.	2c/	.	2c/	.	2cc\	.	2gg\
4C/	.	.	4e 4c/	.	4g 4G/	.	4ee\	.	.	.	.	4c/	.	4c/	.	4cc\	.	4ee\
*	*	*	*	*	*	*	*	*	*	*	*	*	*	*	*	*Xrep	*	*
=60	=60	=60	=60	=60	=60	=60	=60	=60	=60	=60	=60	=60	=60	=60	=60	=60	=60	=60
4C/	.	.	4e 4c/	.	4g 4G/	.	4cc\	.	4cc\	-cto	.	4c/	.	4c/	.	4cc\	.	4cc\
4r	.	.	4r	.	4r	.	4r	.	4r	.	.	4r	.	4r	.	4r	.	4r
4r	.	.	4r	.	4r	.	4r	.	4r	.	.	4r	.	4r	.	4r	.	4r
!LO:LB:g=original	!	!	!	!	!	!	!LO:LB:g=original	!	!LO:LB:g=original	!	!	!	!	!	!	!	!	!
=61	=61	=61	=61	=61	=61	=61	=61	=61	=61	=61	=61	=61	=61	=61	=61	=61	=61	=61
!	!LO:DY:b:rj	!	!	!LO:DY:b:rj	!	!	!	!	!	!	!	!	!LO:DY:b:rj	!	!LO:DY:b:rj	!	!	!
2.GG/	p	X X 3	2.d 2.B/	f	8g'>/L	.	8gg'\L	.	2.dd\	Jan	.	2.G/	p	2.g/	p	2.b\	.	2.gg\
.	.	.	.	.	8f#X'>/Jk	.	8ff#X'\Jk	.	.	.	.	.	.	.	.	.	.	.
.	.	.	.	.	8g'>/L	.	8gg'\L	.	.	.	.	.	.	.	.	.	.	.
.	.	.	.	.	8d'>/	.	8dd'\	.	.	.	.	.	.	.	.	.	.	.
.	.	.	.	.	8B'>/	.	8b'\	.	.	.	.	.	.	.	.	.	.	.
.	.	.	.	.	8G'>/J	.	8g'\J	.	.	.	.	.	.	.	.	.	.	.
!	!	!	!	!	!LO:LB:g=original	!	!	!	!	!	!	!	!	!	!	!	!	!
=62	=62	=62	=62	=62	=62	=62	=62	=62	=62	=62	=62	=62	=62	=62	=62	=62	=62	=62
2GG/	.	X 6 4	2e 2c/	.	8.g/L	.	8gg'\L	.	2ee\	et-	.	2G/	.	2g/	.	2cc\	.	2gg\
.	.	.	.	.	.	.	8ff#X'\Jk	.	.	.	.	.	.	.	.	.	.	.
.	.	.	.	.	16f#X/J	.	.	.	.	.	.	.	.	.	.	.	.	.
.	.	.	.	.	8g/L	.	8gg'\L	.	.	.	.	.	.	.	.	.	.	.
.	.	.	.	.	8e/	.	8ee'\	.	.	.	.	.	.	.	.	.	.	.
4GG/	.	X 6 4#	4e 4c#X/	.	8c#X/	.	8cc#X'\	.	4ee\	-me	.	4G/	.	4g/	.	4cc#X\	.	4gg\
.	.	.	.	.	8G/J	.	8g'\J	.	.	.	.	.	.	.	.	.	.	.
=63	=63	=63	=63	=63	=63	=63	=63	=63	=63	=63	=63	=63	=63	=63	=63	=63	=63	=63
*	*	*	*	*	*	*	*	*	*	*	*	*rep	*	*rep	*	*	*	*
2GG/	.	X X 7	2f 2d/	.	8g'/L	.	8gg'\L	.	2ff\	etc-	.	2G/	.	2g/	.	2dd\	.	2gg\
.	.	.	.	.	8d'/	.	8dd'\	.	.	.	.	.	.	.	.	.	.	.
.	.	.	.	.	8B'/	.	8b'\	.	.	.	.	.	.	.	.	.	.	.
.	.	.	.	.	8G'/	.	8g'\	.	.	.	.	.	.	.	.	.	.	.
4GG/	.	X 6 4	4e 4cn/	.	8e'/	.	8ee'\	.	4ee\	-si-	.	4G/	.	4g/	.	4ccn\	.	4gg\
.	.	.	.	.	8c'/J	.	8cc'\J	.	.	.	.	.	.	.	.	.	.	.
*	*	*	*	*	*	*	*	*	*	*	*	*Xrep	*	*Xrep	*	*	*	*
=64	=64	=64	=64	=64	=64	=64	=64	=64	=64	=64	=64	=64	=64	=64	=64	=64	=64	=64
4GG/	.	X X 3	4d 4B/	.	4g 4G/	.	4gg 4b\	.	4dd\	-am	.	4G/	.	4g/	.	4b/	.	4gg\
4GG/	.	X X 8	4g 4G/	.	4g 4G/	.	4g 4G/	.	4r	.	.	4G/	.	4g/	.	4g/	.	4gg\
!	!	!	!	!	!	!	!	!	!LO:TX:a:i:t=Solo	!	!	!	!	!	!	!LO:TX:a:i:t=Solo	!	!LO:TX:a:i:t=Solo
4r	.	.	4r	.	4r	.	4r	.	4r	.	.	4r	.	4r	.	4r	.	4r
*	*	*	*Xtremolo	*	*	*	*	*	*	*	*	*	*	*	*	*Xtremolo	*	*
!	!	!	!LO:LB:g=original	!	!	!	!	!	!	!	!	!	!	!	!	!	!	!
=65	=65	=65	=65	=65	=65	=65	=65	=65	=65	=65	=65	=65	=65	=65	=65	=65	=65	=65
!	!	!	!	!	!	!	!LO:TX:b:i:t=Solo	!	!	!	!	!	!	!	!	!	!	!
!LO:TX:a:i:t=tasto Solo	!	!	!	!	!	!	!LO:TX:a:i:t=4 Corda	!	!	!	!	!LO:TX:a:t=4	!	!LO:TX:a:t=4	!	!	!	!
!	!	!	!	!LO:DY:b	!	!LO:DY:b	!	!LO:DY:b:rj	!	!	!	!	!	!	!	!	!	!
2.E\	.	.	8r	p	8r	p	4c/	f	4cc\	San-	.	0.r	.	0.r	.	4cc\	.	4ccc\
.	.	.	8c/	.	8g 8G/	.	.	.	.	.	.	.	.	.	.	.	.	.
.	.	.	8c/L	.	8g 8G/L	.	4d/	.	4dd\	-ctam	.	.	.	.	.	4dd\	.	4ddd\
.	.	.	8c/	.	8g 8G/	.	.	.	.	.	.	.	.	.	.	.	.	.
.	.	.	8c/	.	8g 8G/	.	4e/	.	4ee\	e-	.	.	.	.	.	4ee\	.	4eee\
.	.	.	8c/J	.	8g 8G/J	.	.	.	.	.	.	.	.	.	.	.	.	.
=66	=66	=66	=66	=66	=66	=66	=66	=66	=66	=66	=66	=66	=66	=66	=66	=66	=66	=66
2.F\	.	.	8r	.	8r	.	4e/	.	(>4ee\	-cle-	.	.	.	.	.	[>4ee\	.	(>[>4eee\
!	!	!	!	!	!LO:N:vis=4	!	!	!	!	!	!	!	!	!	!	!	!	!
.	.	.	8d/	.	8f 8A/	.	.	.	.	.	.	.	.	.	.	.	.	.
*	*	*	*tremolo	*	*	*	*	*	*	*	*	*	*	*	*	*	*	*
.	.	.	8d/L	.	8f 8A/L	.	16e/LL	.	16ee\LL	.	.	.	.	.	.	16ee\LL]	.	16eee\LL]
.	.	.	.	.	.	.	16d/	.	16dd\JJ)	.	.	.	.	.	.	16dd\	.	16ddd\
.	.	.	8d/	.	8f 8A/	.	16c/	.	(>16cc\LL	-si-	.	.	.	.	.	16cc\	.	16ccc\
.	.	.	.	.	.	.	16B/JJ	.	16b\JJ)	.	.	.	.	.	.	16b\JJ	.	16bb\JJ)
.	.	.	8d/	.	8f 8A/	.	4A/	.	8a\	-am	.	.	.	.	.	4a/	.	4aa\
.	.	.	8d/J	.	8f 8A/J	.	.	.	8a\	et	.	.	.	.	.	.	.	.
=67	=67	=67	=67	=67	=67	=67	=67	=67	=67	=67	=67	=67	=67	=67	=67	=67	=67	=67
4D\	.	.	8r	.	8r	.	4d/	.	4dd\	vi-	.	.	.	.	.	4dd\	.	4ddd\
.	.	.	8d/	.	8f 8A/	.	.	.	.	.	.	.	.	.	.	.	.	.
4C#X\	.	.	8r	.	8r	.	4e/	.	4ee\	-tam	.	.	.	.	.	4ee\	.	4eee\
.	.	.	8e/	.	8g 8A/	.	.	.	.	.	.	.	.	.	.	.	.	.
4D\	.	.	8r	.	8r	.	4f/	.	4ff\	ven-	.	.	.	.	.	4ff\	.	4fff\
.	.	.	8d/	.	8f 8A/	.	.	.	.	.	.	.	.	.	.	.	.	.
=68	=68	=68	=68	=68	=68	=68	=68	=68	=68	=68	=68	=68	=68	=68	=68	=68	=68	=68
2.G\	.	.	8r	.	8r	.	8.f/L	.	8.ff\L	-tu-	.	.	.	.	.	8.ff\L	.	8.fff\L
!	!	!	!	!	!LO:N:vis=4	!	!	!	!	!	!	!	!	!	!	!	!	!
.	.	.	8d/	.	8g 8G/	.	.	.	.	.	.	.	.	.	.	.	.	.
.	.	.	.	.	.	.	16d/Jk	.	16dd\Jk	.	.	.	.	.	.	16dd\Jk	.	16ddd\Jk
.	.	.	8d/L	.	8g 8G/L	.	4B/	.	4b\	-ri	.	.	.	.	.	4b\	.	4bb\
.	.	.	8d/	.	8g 8G/	.	.	.	.	.	.	.	.	.	.	.	.	.
.	.	.	8d/	.	8g 8G/	.	4r	.	4r	.	.	.	.	.	.	4r	.	4r
.	.	.	8d/J	.	8g 8G/J	.	.	.	.	.	.	.	.	.	.	.	.	.
!	!	!	!	!	!	!	!	!	!	!	!	!	!	!	!	!LO:LB:g=original	!	!
=69	=69	=69	=69	=69	=69	=69	=69	=69	=69	=69	=69	=69	=69	=69	=69	=69	=69	=69
*	*	*	*rep	*	*rep	*	*	*	*	*	*	*	*	*	*	*	*	*
!	!	!	!	!	!	!	!	!	!	!	!	!	!LO:DY:b:rj	!	!LO:DY:b:rj	!	!	!
2.F\	.	.	8r	.	8r	.	4d/	.	4dd\	vi-	.	2.G/	p	2.g/	p	4dd\	.	4ddd\
!	!	!	!	!	!LO:N:vis=4	!	!	!	!	!	!	!	!	!	!	!	!	!
.	.	.	8d/	.	8g 8G/	.	.	.	.	.	.	.	.	.	.	.	.	.
.	.	.	8d/L	.	8g 8G/L	.	4a/	.	4aa\	-tam	.	.	.	.	.	4aa\	.	4aaa\
.	.	.	8d/	.	8g 8G/	.	.	.	.	.	.	.	.	.	.	.	.	.
.	.	.	8d/	.	8g 8G/	.	4g/	.	4gg\	ven-	.	.	.	.	.	4gg\	.	4ggg\
.	.	.	8d/J	.	8g 8G/J	.	.	.	.	.	.	.	.	.	.	.	.	.
*	*	*	*Xrep	*	*Xrep	*	*	*	*	*	*	*	*	*	*	*	*	*
!	!	!	!	!	!	!	!	!	!	!	!	!	!	!	!	!	!	!LO:LB:g=original
=70	=70	=70	=70	=70	=70	=70	=70	=70	=70	=70	=70	=70	=70	=70	=70	=70	=70	=70
4E\	.	.	8r	.	8r	.	8.g/L	.	(>8.gg\L	-tu-	.	2.c/	.	2.c/	.	8.gg\L	.	8.ggg\L
.	.	.	8c/	.	8g 8G/	.	.	.	.	.	.	.	.	.	.	.	.	.
.	.	.	.	.	.	.	16e/Jk	.	16ee\Jk)	.	.	.	.	.	.	16ee\Jk	.	16ccc\Jk
4A\	.	.	8r	.	8r	.	4c/	.	4cc\	-ri	.	.	.	.	.	4cc\	.	4ccc\
.	.	.	8c/	.	8e 8A/	.	.	.	.	.	.	.	.	.	.	.	.	.
4F#X\	.	.	8r	.	8r	.	8c/L	.	(>8cc\L	in	.	.	.	.	.	(>8cc\L	.	(>8ccc\L
.	.	.	8c/	.	8a 8e-X/	.	8d/J	.	8dd\J)	.	.	.	.	.	.	8dd\J)	.	8ddd\J)
=71	=71	=71	=71	=71	=71	=71	=71	=71	=71	=71	=71	=71	=71	=71	=71	=71	=71	=71
2G\	.	.	8r	.	8r	.	(<4.e/	.	(>4.ee\	se-	.	2G/	.	2g/	.	4.ee\	.	(>4.eee\
.	.	.	8e 8c/L	.	8g 8G/L	.	.	.	.	.	.	.	.	.	.	.	.	.
.	.	.	8e 8c/	.	8g 8G/	.	.	.	.	.	.	.	.	.	.	.	.	.
.	.	.	8e 8c/J	.	8g 8G/J	.	16g/LL	.	16gg\LL	.	.	.	.	.	.	(>16gg\LL	.	16ggg\LL)
.	.	.	.	.	.	.	16f/JJ)	.	16ff\JJ)	.	.	.	.	.	.	16ff\JJ)	.	16fff\JJ
*	*	*	*	*	*Xtremolo	*	*	*	*	*	*	*	*	*	*	*	*	*
*	*	*	*Xtremolo	*	*	*	*	*	*	*	*	*	*	*	*	*	*	*
4GG/	.	.	8r	.	8r	.	8d/L	.	(>8dd\L	-cu-	.	4G/	.	4g/	.	8dd\L	.	8ddd\L
.	.	.	8d 8B/	.	8f 8G/	.	16f/L	.	16ff\L	.	.	.	.	.	.	(>16ff\L	.	16fff\L
.	.	.	.	.	.	.	16e/JJ	.	16ee\JJ)	.	.	.	.	.	.	16ee\JJ)	.	16eee\JJ
!	!	!	!	!	!	!	!	!	!	!	!	!LO:LB:g=original	!	!	!	!	!	!
=72	=72	=72	=72	=72	=72	=72	=72	=72	=72	=72	=72	=72	=72	=72	=72	=72	=72	=72
4C/	.	.	4c 4C/	.	4e 4G/	.	4c/	.	4cc\	-li	.	4c/	.	4c/	.	4cc/	.	4ccc\
4C/	.	.	4c 4C/	.	4c/	.	4c/	.	4r	.	.	4c/	.	4c/	.	4c/	.	4cc\
4r	.	.	4r	.	4r	.	4r	.	4r	.	.	4r	.	4r	.	4r	.	4r
==	==	==	==	==	==	==	==	==	==	==	==	==	==	==	==	==	==	==
*-	*-	*-	*-	*-	*-	*-	*-	*-	*-	*-	*-	*-	*-	*-	*-	*-	*-	*-
!!!system-decoration: [(g1)][(g2)][(s5)][(g3)][(s9)]
!!!RDF**kern: > = above
!!!RDF**kern: < = below
!!!ENC: Andrzej Gręziak
!!!END: 2020-10-23
!!!EED: Antoni Szymański
!!!EEV: 2022-02-07
!!!YEC: Copyright 2022 Narodowy Instytut Fryderyka Chopina (https://polishscores.org)
!!!YEM: Licence CC BY 4.0 (https://creativecommons.org/licenses/by/4.0)
